src/pos-icons/soccer.svg

<svg height="24" viewBox="0 0 24 24" width="24" xmlns="http://www.w3.org/2000/svg"><path d="m12 2a10 10 0 0 0 -10 10 10 10 0 0 0 10 10 10 10 0 0 0 10-10 10 10 0 0 0 -10-10m0 1c1.76 0 3.4.53 4.78 1.41l-.28.59h-3.5-1l-1.72-.84.35-1.03c.45-.08.9-.13 1.37-.13m-2.47.38-.34 1.03-2.56 1.28-1.25.25c1.12-1.21 2.54-2.1 4.15-2.56m3.47 2.62h3l2.69 3.59-1.25 2.57-2.63.62-3.28-3.84zm-6.84.66.84 3.34-1.22 3.06-2.56.88c-.14-.63-.22-1.27-.22-1.94 0-1.9.59-3.64 1.59-5.09zm14.4 2.56c.29.87.44 1.81.44 2.78 0 1.44-.37 2.79-.97 4h-1.03l-.84-3.34 1.5-3zm-12.56.78h3l2.81 3.28-1.81 2.72-3.16.78-2.31-3.09zm4 7 3 2-.87 1.72c-.69.16-1.4.28-2.13.28-1.75 0-3.37-.5-4.75-1.37l1.16-1.72zm7 0h.5c-1 1.5-2.5 2.67-4.19 3.34l.69-1.34z"/></svg>

<?xml version="1.0" encoding="UTF-8"?><!DOCTYPE svg PUBLIC "-//W3C//DTD SVG 1.1//EN" "http://www.w3.org/Graphics/SVG/1.1/DTD/svg11.dtd"><svg xmlns="http://www.w3.org/2000/svg" xmlns:xlink="http://www.w3.org/1999/xlink" version="1.1" id="mdi-soccer" width="24" height="24" viewBox="0 0 24 24"><path d="M12,2A10,10 0 0,0 2,12A10,10 0 0,0 12,22A10,10 0 0,0 22,12A10,10 0 0,0 12,2M12,3C13.76,3 15.4,3.53 16.78,4.41L16.5,5H13L12,5L10.28,4.16L10.63,3.13C11.08,3.05 11.53,3 12,3M9.53,3.38L9.19,4.41L6.63,5.69L5.38,5.94C6.5,4.73 7.92,3.84 9.53,3.38M13,6H16L18.69,9.59L17.44,12.16L14.81,12.78L11.53,8.94L13,6M6.16,6.66L7,10L5.78,13.06L3.22,13.94C3.08,13.31 3,12.67 3,12C3,10.1 3.59,8.36 4.59,6.91L6.16,6.66M20.56,9.22C20.85,10.09 21,11.03 21,12C21,13.44 20.63,14.79 20.03,16H19L18.16,12.66L19.66,9.66L20.56,9.22M8,10H11L13.81,13.28L12,16L8.84,16.78L6.53,13.69L8,10M12,17L15,19L14.13,20.72C13.44,20.88 12.73,21 12,21C10.25,21 8.63,20.5 7.25,19.63L8.41,17.91L12,17M19,17H19.5C18.5,18.5 17,19.67 15.31,20.34L16,19L19,17Z" /></svg>
